svg/furkot/phone.svg

<svg viewBox="0 0 512 512" xmlns="http://www.w3.org/2000/svg"><path d="m256 61.85c-43.331 0-152.233 9.671-201.559 44.554-49.321 34.888-33.398 115.83 22.149 104.535 62.551-12.718 75.515-43.986 42.291-74.322 0 0 57.698-25.661 137.119-25.661m0-49.106c43.331 0 152.238 9.671 201.559 44.554 49.321 34.882 33.398 115.83-22.149 104.535-62.551-12.718-75.515-43.986-42.291-74.322 0 0-57.703-25.661-137.119-25.661m192.148 235.171c-4.597-41.405-25.559-49.853-58.972-95.723-30.044-41.257-37.668-71.649-40.612-114.591 0 0-11.361-5.396-27.048-5.396 0 0 4.613 49.566-65.521 49.566-70.139 0-65.526-49.566-65.526-49.566-15.688 0-27.049 5.396-27.049 5.396-2.939 42.942-10.562 73.334-40.612 114.591-33.408 45.87-54.369 54.318-58.967 95.723-10.132 91.244 116.173 99.881 192.159 99.881 75.981 0 202.291-8.637 192.148-99.881zm-192.148 18.903c-41.272 0-74.732-33.464-74.732-74.736s33.46-74.732 74.732-74.732 74.732 33.465 74.732 74.732-33.46 74.736-74.732 74.736z"/></svg>

<svg xmlns="http://www.w3.org/2000/svg" viewBox="0 0 512 512"><path d="M256 61.85C212.669 61.85 103.767 71.521 54.441 106.404 5.12 141.292 21.043 222.234 76.59 210.939 139.141 198.221 152.105 166.953 118.881 136.617 118.881 136.617 176.579 110.956 256 110.956M256 61.85C299.331 61.85 408.238 71.521 457.559 106.404 506.88 141.286 490.957 222.234 435.41 210.939 372.859 198.221 359.895 166.953 393.119 136.617 393.119 136.617 335.416 110.956 256 110.956M448.148 346.127C443.551 304.722 422.589 296.274 389.176 250.404 359.132 209.147 351.508 178.755 348.564 135.813 348.564 135.813 337.203 130.417 321.516 130.417 321.516 130.417 326.129 179.983 255.995 179.983 185.856 179.983 190.469 130.417 190.469 130.417 174.781 130.417 163.42 135.813 163.42 135.813 160.481 178.755 152.858 209.147 122.808 250.404 89.4 296.274 68.439 304.722 63.841 346.127 53.709 437.371 180.014 446.008 256 446.008 256 446.008 256 446.008 256 446.008 331.981 446.008 458.291 437.371 448.148 346.127ZM256 365.03C214.728 365.03 181.268 331.566 181.268 290.294S214.728 215.562 256 215.562C297.272 215.562 330.732 249.027 330.732 290.294S297.272 365.03 256 365.03Z"/></svg>
